!!!COM: Henri Reber
!!!CNT: Francais
!!!TXO: Francais
!!!OTL: Chanson de Thibaut
!!!LYR: Thibaut, Conte de Champagne
!!!ODT: 1837/
!!!ENC: Jacob Pegg
!!!YOR: Romantic French Song 1830-1870, David Tunley, ed., New York: Garland Publishing, Inc., 1995, vol. 3
!!NB: Vocal melody and text only encoded.
!!NB: First instance of melodic material only encoded.
**kern	**silbe
*clef G2	*
*k[b-]	*
*M6/8	*
=3	=3
{8.a	{Las!
16a	si
8a	j'a-
8a	-vais
8a	le
8a	pou-
=4	=4
8b-	-voir
8b-	d'ou-
8b-	-bli-
8a	er
8a	sa
8a	beau-
=5	=5
8.g}	-te/:}
{16g	{Sa
8g	beau-
8g#	-te/,
8g#	son
8g#	bien
=6	=6
4.a	di-
4gn}	-re,}
8r	.
=7	=7
{8a	{Et
8a	son
8a	tre\s
8cc	doux,
8cc	son
8cc	tre\s
=8	=8
8ee	doux
8dd	re-
8dd	-gar-
8cc}	-der}
{8cc	{Fi-
8cc	-ni-
=9	=9
4.bn	-rait
4cc	mon
8dd	mar-
=10	=10
(4ee	-ty-
8dd)	|
8cc}	-re;}
8r	.
{8cc	{Mais
=11	=11
(8.cc	las!
16dd)	|
8cc	mon
(8cc	coeur
8b-)	|
8b-	n'en
=12	=12
(8.b-	puis
16cc)	|
8b-	o^-
(8b-	-ter.
8a)}	|}
{8a	{Est
=13	=13
8a	grand
8a	af-
8a	-fo-
4a	-lage
8a	a\
=14	=14
8cc	moi
8b-	d'es-
8a	-pe-
4g}	-rer!}
8r	.
=15	=15
{8g#	{Mais
8g#	tel
8g#	ser-
4a	-va-
8a	-ge
=16	=16
8.bn	don-
16a	-ne
8bn	cou-
4cc	-ra-
8a}	-ge}
=17	=17
{8a	{don-
8a	-ne
8a	cou-
(8.bn	-ra-
16cc)	-ge
8bn	a\
=18	=18
8e	tout
8a	en-
8bn	-du-
8a;}	-rer.}
8r;	.
{8a	{Et
=19	=19
[4.a	puis
8a]	|
8r	.
8a	et
=20	=20
4a	puis
8a	com-
4a	-ment,
8a	com-
=21	=21
8b-	-ment
8b-	oub-
8b-	-li-
8a	-er
8a	sa
8a	beau-
=22	=22
8.g	-te/,
16g	sa
8g	beau-
8g#	-te/,
8g#	son
8g#	bien
=23	=23
4.a	di-
4gn}	-re,}
8r	.
=24	=24
{8a	{Et
8a	son
8a	tre\s
8cc	doux,
8cc	son
8cc	tre\s
=25	=25
8ee	doux
8dd	re-
8dd	-gar-
8cc;}	-der!}
8r;	.
{8cc	{Mieux
=26	=26
(8.cc	ai-
16b-)	|
8b-	-me
(8.b-	mon
16a)	|
8a	mar-
=27	=27
[4g	-ty-
(24g]	|
24a	|
24b-)	|
8a}	-re,}
8r	.
{8a	{Mieux
=28	=28
(8.a	ai-
16cc)	|
8a	-me
4a	mon
8a	mar-
=29	=29
(4a	-ty-
8g)	|
4f}	-re,}
{8a	{Mieux
=30	=30
(8.a	ai-
16cc)	|
8a	-me
4a	mon
8a	mar-
=31	=31
(4a	-ty-
8g)	|
4.f}	-re.}
*-	*-
